X: 1
T: Chris Droney’s
L: 1/8
M: 4/4
R: reel
K: Ador
eA (AAA a2 bg|agef gedc|BG (3GFG DG (3GFG|Bdef gedg|
eA (AAA a2 bg|agef gabg|agab gedB|GABG A2 Bd||
a2 ea agbg|agef gedc|BG (3GFG DG (3GFG|Bdef gedg|
eaag a2 bg|agef gabg|agab gedB|GABG A4 :|
